src/assets/icon/ic_placeholder.svg

<svg width="209" height="288" viewBox="0 0 209 288" fill="none" xmlns="http://www.w3.org/2000/svg">
<path d="M104.5 0C46.8787 0 0 45.3222 0 101.03C0 119.852 5.39278 138.221 15.5989 154.156L98.5516 283.395C100.141 285.871 102.94 287.375 105.951 287.375C105.974 287.375 105.997 287.375 106.02 287.375C109.057 287.352 111.862 285.801 113.422 283.282L194.26 152.791C203.903 137.192 209 119.294 209 101.03C209 45.3222 162.121 0 104.5 0ZM179.314 144.147L105.819 262.783L30.402 145.285C21.9067 132.021 17.3006 116.718 17.3006 101.03C17.3006 54.6069 56.4823 16.7261 104.5 16.7261C152.518 16.7261 191.641 54.6069 191.641 101.03C191.641 116.253 187.339 131.164 179.314 144.147Z" fill="white"/>
<path d="M104.498 50.5151C75.6874 50.5151 52.248 73.1762 52.248 101.03C52.248 128.706 75.306 151.545 104.498 151.545C134.05 151.545 156.748 128.402 156.748 101.03C156.748 73.1762 133.309 50.5151 104.498 50.5151ZM104.498 134.819C85.1905 134.819 69.5486 119.646 69.5486 101.03C69.5486 82.4609 85.2909 67.2413 104.498 67.2413C123.705 67.2413 139.389 82.4609 139.389 101.03C139.389 119.375 124.112 134.819 104.498 134.819Z" fill="white"/>
</svg>

<svg width="209" height="288" fill="none" xmlns="http://www.w3.org/2000/svg"><path d="M104.5 0C46.879 0 0 45.322 0 101.03c0 18.822 5.393 37.191 15.599 53.126l82.953 129.239c1.589 2.476 4.388 3.98 7.399 3.98h.069c3.037-.023 5.842-1.574 7.402-4.093l80.838-130.491c9.643-15.599 14.74-33.497 14.74-51.761C209 45.322 162.121 0 104.5 0zm74.814 144.147-73.495 118.636-75.417-117.498c-8.495-13.264-13.101-28.567-13.101-44.255 0-46.423 39.181-84.304 87.199-84.304s87.141 37.88 87.141 84.304c0 15.223-4.302 30.134-12.327 43.117z" fill="#fff"/><path d="M104.498 50.515c-28.81 0-52.25 22.661-52.25 50.515 0 27.676 23.058 50.515 52.25 50.515 29.552 0 52.25-23.143 52.25-50.515 0-27.854-23.439-50.515-52.25-50.515zm0 84.304c-19.308 0-34.95-15.173-34.95-33.789 0-18.57 15.743-33.789 34.95-33.789s34.891 15.22 34.891 33.789c0 18.345-15.277 33.789-34.891 33.789z" fill="#fff"/></svg>
